!!!!SEGMENT: Ric2032-Sicut_locutus_est
!!!id: Ric2032
!!!AGN: Motet
!!!voices: 2
!!!COM: Jean Richafort
!!!OTL: Sicut locutus est
**kern	**kern
*part2	*part1
*staff2	*staff1
*I"Tenor	*I"Superius
*I'T.	*I'S.
*clefGv2	*clefG2
*k[]	*k[]
*M2/1	*M2/1
*met(C|)	*met(C|)
=1	=1
!!section: Sicut locutus est
!!!OMD: Sicut locutus est
1G	0r
2.A	.
4G	.
=2	=2
4A	1r
4B	.
1c	.
.	1g
2B	.
=3	=3
2c	2.a
2.d	.
.	4g
.	4a
8cL	4b
8BJ	.
4A	[2cc
4B	.
=4	=4
4c	2cc]
4d	.
1e	2b
.	2cc
4d	[2dd
4c	.
=5	=5
4d	4dd]
4e	8ccL
.	8bJ
1f	4a
.	4b
.	4cc
.	4dd
4e	[2ee
4d	.
=6	=6
4e	2ee]
4f	.
1g	4dd
.	4cc
.	4b
.	4cc
4f	4dd
4e	4ee
=7	=7
4f	4dd
4e	4cc
4d	1cc
4c	.
1d	.
.	2b
=8	=8
0c	1cc
.	2r
.	[2ee
=9	=9
2r	2ee]
1g	2ee
.	4dd
.	4cc
2g	4dd
.	4ee
=10	=10
2f	4ff
.	4ee
2.g	4dd
.	4cc
.	2b
4f	.
4e	4cc
4d	4b
=11	=11
4c	4cc
4B	4dd
4c	2.ee
4d	.
2e	.
.	4dd
[2f	4cc
.	4b
=12	=12
4f]	4cc
4d	4b
2.g	4a
.	4g
.	1a
4e	.
2f	.
=13	=13
2.g	2.g
4f	4a
4d	4b
4e	4cc
[2f	[2dd
=14	=14
4f]	2dd]
4e	.
4d	1cc
4c	.
1d	.
.	2b
=15	=15
1c	[0cc
2r	.
[2f	.
=16	=16
2f]	1cc]
2e	.
2d	2r
2c	[2cc
=17	=17
2.e	2cc]
.	2b
4d	.
2c	2a
2B	2g
=18	=18
4A	2.cc
4B	.
4c	.
4d	4cc
2e	2b
2f	2a
=19	=19
2e	2b
2.g	4e
.	4f
.	4g
8fL	4a
8eJ	.
4d	4b
4c	4a
=20	=20
4d	4b
4e	4cc
2.f	2.dd
4e	4cc
4d	4b
4c	4a
=21	=21
4d	2b
4c	.
4c	1a
8BL	.
8AJ	.
2B	.
2B	2g#i
=22	=22
1A	0a
2r	.
[2c	.
=23	=23
2c]	2r
2B	1dd
1A	.
.	2cc
=24	=24
2r	2b
1f	2a
.	2.cc
2e	.
.	4cc
=25	=25
2d	2b
2c	1a
2d	.
2e	2g
=26	=26
2c	2.a
2f	.
.	4b
4f	2.cc
4e	.
4c	.
4d	4b
=27	=27
4e	4g
4d	4a
4B	2.b
4c	.
4d	.
4c	4a
4B	[2a
4A	.
=28	=28
1B	2a]
.	2g#i
[1Al	[1al
=29	=29
0A]	0a]
==	==
*-	*-
!!!system-decoration: s1,s2
!!!RDF**kern: i = editorial accidental
!!!RDF**kern: l = terminal long
!!!ENC: Max Blistain
!!!END: 2026/2/13
!!!EED: Benjamin Ory
!!!EEV: 2026/02/17
!!!YEC: Copyright 2026 Benjamin Ory, All Rights Reserved
!!!ONB: Translated from MusicXML on 2026/02/17
